Adwaita++/places/16/folder-games.svg

<svg height="16" width="16" xmlns="http://www.w3.org/2000/svg">
  <path d="m12.238 1.9922c-.241.0012-.464.08-.674.2305-.53.381-1.6281.7793-3.5581.7793-1.94 0-3.0404-.3983-3.5704-.7793-.21-.151-.4103-.2207-.6503-.2207s-.5206.0697-.8106.2207c-1.03.551-1.98976 2.3332-2.50976 4.6582-.439996 1.984-.59984 4.6791-.33984 5.7641.23.942.62986 1.355 1.3398 1.355 1.04-.02 2.3495-1.186 3.1895-2.76.6-.872 2.0016-1.2629 3.3516-1.222 1.34-.0509 2.7401.35 3.3401 1.222.84 1.574 2.149 2.74 3.199 2.76.7 0 1.1-.413 1.33-1.355.26-1.085.1-3.7801-.34-5.7641-.52-2.325-1.48-4.1072-2.51-4.6582-.285-.1555-.545-.2318-.787-.2305zm-8.238 3.0078h1v1h1v1h-1v1h-1v-1h-1v-1h1zm7.5 0a.5.5 0 0 1 .5.5.5.5 0 0 1 -.5.5.5.5 0 0 1 -.5-.5.5.5 0 0 1 .5-.5zm-1 1a.5.5 0 0 1 .5.5.5.5 0 0 1 -.5.5.5.5 0 0 1 -.5-.5.5.5 0 0 1 .5-.5zm2 0a.5.5 0 0 1 .5.5.5.5 0 0 1 -.5.5.5.5 0 0 1 -.5-.5.5.5 0 0 1 .5-.5zm-1 1a.5.5 0 0 1 .5.5.5.5 0 0 1 -.5.5.5.5 0 0 1 -.5-.5.5.5 0 0 1 .5-.5z" fill="#474747"/>
</svg>

<svg xmlns="http://www.w3.org/2000/svg" width="16" height="16" version="1.1">
 <defs>
  <style id="current-color-scheme" type="text/css">
   .ColorScheme-Text { color:#474747; } .ColorScheme-Highlight { color:#4285f4; }
  </style>
 </defs>
 <path style="fill:currentColor" class="ColorScheme-Text" d="M 12.238 1.9922 C 11.997 1.9934 11.774 2.0722 11.564 2.2227 C 11.034 2.6037 9.9359 3.002 8.0059 3.002 C 6.0659 3.002 4.9655 2.6037 4.4355 2.2227 C 4.2255 2.0717 4.0252 2.002 3.7852 2.002 C 3.5452 2.002 3.2646 2.0717 2.9746 2.2227 C 1.9446 2.7737 0.98484 4.5559 0.46484 6.8809 C 0.024844 8.8649 -0.135 11.56 0.125 12.645 C 0.355 13.587 0.75486 14 1.4648 14 C 2.5048 13.98 3.8143 12.814 4.6543 11.24 C 5.2543 10.368 6.6559 9.9771 8.0059 10.018 C 9.3459 9.9671 10.746 10.368 11.346 11.24 C 12.186 12.814 13.495 13.98 14.545 14 C 15.245 14 15.645 13.587 15.875 12.645 C 16.135 11.56 15.975 8.8649 15.535 6.8809 C 15.015 4.5559 14.055 2.7737 13.025 2.2227 C 12.74 2.0672 12.48 1.9909 12.238 1.9922 z M 4 5 L 5 5 L 5 6 L 6 6 L 6 7 L 5 7 L 5 8 L 4 8 L 4 7 L 3 7 L 3 6 L 4 6 L 4 5 z M 11.5 5 A 0.5 0.5 0 0 1 12 5.5 A 0.5 0.5 0 0 1 11.5 6 A 0.5 0.5 0 0 1 11 5.5 A 0.5 0.5 0 0 1 11.5 5 z M 10.5 6 A 0.5 0.5 0 0 1 11 6.5 A 0.5 0.5 0 0 1 10.5 7 A 0.5 0.5 0 0 1 10 6.5 A 0.5 0.5 0 0 1 10.5 6 z M 12.5 6 A 0.5 0.5 0 0 1 13 6.5 A 0.5 0.5 0 0 1 12.5 7 A 0.5 0.5 0 0 1 12 6.5 A 0.5 0.5 0 0 1 12.5 6 z M 11.5 7 A 0.5 0.5 0 0 1 12 7.5 A 0.5 0.5 0 0 1 11.5 8 A 0.5 0.5 0 0 1 11 7.5 A 0.5 0.5 0 0 1 11.5 7 z"/>
</svg>
